resources/haticons/SVG/uber-freight.svg

<!-- Generated by IcoMoon.io -->
<svg version="1.1" xmlns="http://www.w3.org/2000/svg" width="24" height="24" viewBox="0 0 24 24">
<title>uber-freight</title>
<path d="M24 12l-4.8-11.25h-19.2l4.5 10.050h5.1v-2.175h6.3v6.45h-6.3v-2.175h-5.1l-4.5 10.35h19.2z"></path>
</svg>

<svg xmlns="http://www.w3.org/2000/svg" width="24" height="24"><path d="M24 12L19.2.75H0L4.5 10.8h5.1V8.625h6.3v6.45H9.6V12.9H4.5L0 23.25h19.2z"/></svg>
